X:330
T:The Hitchin Diamond
C:Colin Hume, 2017
L:1/8
M:6/8
S:Colin Hume's website,  colinhume.com  - chords can also be printed below the stave.
Q:3/8=116
K:D
P:A
|: "D"A2A "A7"GFE | "D"F2D A,3 | "G"B,2C DCD | "A7"E2F GFG |\
"D"A2A "A7"GFE | "D"F2D A,3 | "G"B,2C DCD | "A7"E3 "D"D3 :|
P:B
|: "D"d3 "Em"d3 | "D/F#"d2c "G"Bcd | "A"e2d cde | "D"f2e d2c |\
"G"B3 d3 | "D"A3 G2F | "Em"G3 B3 | "A"A3 z3 :|
P:C
|: "D"d2A AGF | "G"G2AB3 | "Em"G3 "D"F3 | "A"E3 zFG |\
"D"A3 d2c | "G"B2A G2F | "A7"E3 A3 | "D"D6 :|

